public/images/circles.svg

<svg height="166" viewBox="0 0 240 166" width="240" xmlns="http://www.w3.org/2000/svg"><g fill="none" fill-rule="evenodd"><ellipse cx="8" cy="8.00281" fill="#fff" rx="7" ry="7.00281" stroke="#3eb0fd" stroke-opacity=".4" stroke-width="2"/><ellipse cx="40" cy="8.00281" fill="#fff" rx="7" ry="7.00281" stroke="#3eb0fd" stroke-opacity=".4" stroke-width="2"/><ellipse cx="72" cy="8.00281" fill="#9ea9fa" rx="8" ry="8.00281"/><ellipse cx="104" cy="8.00281" fill="#fff" rx="7" ry="7.00281" stroke="#3eb0fd" stroke-opacity=".4" stroke-width="2"/><ellipse cx="136" cy="8.00281" fill="#fff" rx="7" ry="7.00281" stroke="#3eb0fd" stroke-opacity=".4" stroke-width="2"/><ellipse cx="168" cy="8.00281" fill="#fff" rx="7" ry="7.00281" stroke="#3eb0fd" stroke-opacity=".4" stroke-width="2"/><ellipse cx="200" cy="8.00281" fill="#fff" rx="7" ry="7.00281" stroke="#3eb0fd" stroke-opacity=".4" stroke-width="2"/><ellipse cx="232" cy="8.00281" fill="#fff" rx="7" ry="7.00281" stroke="#3eb0fd" stroke-opacity=".4" stroke-width="2"/><ellipse cx="8" cy="40.00281" fill="#fff" rx="7" ry="7.00281" stroke="#3eb0fd" stroke-opacity=".4" stroke-width="2"/><ellipse cx="40" cy="40.00281" fill="#fff" rx="7" ry="7.00281" stroke="#3eb0fd" stroke-opacity=".4" stroke-width="2"/><ellipse cx="72" cy="40.00281" fill="#fff" rx="7" ry="7.00281" stroke="#3eb0fd" stroke-opacity=".4" stroke-width="2"/><ellipse cx="104" cy="40.00281" fill="#9ea9fa" rx="8" ry="8.00281"/><g fill="#fff" stroke="#3eb0fd" stroke-opacity=".4" stroke-width="2"><ellipse cx="136" cy="40.00281" rx="7" ry="7.00281"/><ellipse cx="168" cy="40.00281" rx="7" ry="7.00281"/><ellipse cx="200" cy="40.00281" rx="7" ry="7.00281"/><ellipse cx="232" cy="40.00281" rx="7" ry="7.00281"/><ellipse cx="8" cy="72.00281" rx="7" ry="7.00281"/><ellipse cx="40" cy="72.00281" rx="7" ry="7.00281"/><ellipse cx="72" cy="72.00281" rx="7" ry="7.00281"/><ellipse cx="104" cy="72.00281" rx="7" ry="7.00281"/><ellipse cx="136" cy="72.00281" rx="7" ry="7.00281"/><ellipse cx="168" cy="72.00281" rx="7" ry="7.00281"/></g><ellipse cx="200" cy="72.00281" fill="#9ea9fa" rx="8" ry="8.00281"/><ellipse cx="232" cy="72.00281" fill="#fff" rx="7" ry="7.00281" stroke="#3eb0fd" stroke-opacity=".4" stroke-width="2"/><ellipse cx="8" cy="104.00281" fill="#fff" rx="7" ry="7.00281" stroke="#3eb0fd" stroke-opacity=".4" stroke-width="2"/><ellipse cx="40" cy="104.00281" fill="#9ea9fa" rx="8" ry="8.00281"/><ellipse cx="72" cy="104.00281" fill="#fff" rx="7" ry="7.00281" stroke="#3eb0fd" stroke-opacity=".4" stroke-width="2"/><ellipse cx="104" cy="104.00281" fill="#fff" rx="7" ry="7.00281" stroke="#3eb0fd" stroke-opacity=".4" stroke-width="2"/><ellipse cx="136" cy="104.00281" fill="#fff" rx="7" ry="7.00281" stroke="#3eb0fd" stroke-opacity=".4" stroke-width="2"/><ellipse cx="168" cy="104.00281" fill="#fff" rx="7" ry="7.00281" stroke="#3eb0fd" stroke-opacity=".4" stroke-width="2"/><ellipse cx="200" cy="104.00281" fill="#fff" rx="7" ry="7.00281" stroke="#3eb0fd" stroke-opacity=".4" stroke-width="2"/><ellipse cx="232" cy="104.00281" fill="#fff" rx="7" ry="7.00281" stroke="#3eb0fd" stroke-opacity=".4" stroke-width="2"/><path d="m112.166376 135.28286c-1.071987.486661-1.546203 1.751978-1.059543 2.82352l3.274626 7.210132-.766213.347996-2.219527-4.886606c-.486661-1.071986-1.751534-1.546647-2.823521-1.059542-1.071986.486661-1.546647 1.751534-1.059542 2.82352l3.12885 6.893247-.779102.353774-1.877309-4.133726c-.486661-1.071542-1.751534-1.546648-2.823521-1.059543-1.071542.486661-1.547091 1.750645-.79599 3.404402l5.399488 11.888296c2.297305 5.051937 9.617213 7.80168 15.835358 4.979493 6.215922-2.825298 8.964332-10.145206 6.141701-16.362906l.012888-.005778-5.651484-12.408734c-.751102-1.654201-.893323-1.936864-1.964865-1.449759-1.878198.852878-2.007975 2.980851-1.52087 4.052394l2.399526 5.2826-.779101.353774-7.756792-17.078454c-.486661-1.071986-1.75109-1.546647-2.823521-1.059542-1.071986.487105-1.546647 1.751534-1.059542 2.82352l6.442586 14.184712-.779101.353773-3.274626-7.210132c-.485772-1.071098-1.751533-1.546647-2.82352-1.059542" fill="#3eb0fd" fill-opacity=".4" fill-rule="nonzero" transform="matrix(-1 0 0 1 236.851636 0)"/></g></svg>

<svg width="240px" height="166px" viewBox="0 0 240 166" version="1.1" xmlns="http://www.w3.org/2000/svg" xmlns:xlink="http://www.w3.org/1999/xlink">
    <g id="Import-Marketing-Page" stroke="none" stroke-width="1" fill="none" fill-rule="evenodd">
        <g id="Medium-Import-Landing-v3" transform="translate(-604.000000, -1394.000000)">
            <g id="how-it-works" transform="translate(231.000000, 1005.000000)">
                <g id="02-select-stack" transform="translate(328.000000, 389.000000)">
                    <g id="Group-10" transform="translate(45.000000, 0.000000)">
                        <ellipse id="Oval" stroke-opacity="0.4" stroke="#3EB0FD" stroke-width="2" fill="#FFFFFF" cx="8" cy="8.00280962" rx="7" ry="7.00280962"></ellipse>
                        <ellipse id="Oval-Copy-4" stroke-opacity="0.4" stroke="#3EB0FD" stroke-width="2" fill="#FFFFFF" cx="40" cy="8.00280962" rx="7" ry="7.00280962"></ellipse>
                        <ellipse id="Oval-Copy-5" fill="#9EA9FA" cx="72" cy="8.00280962" rx="8" ry="8.00280962"></ellipse>
                        <ellipse id="Oval-Copy-6" stroke-opacity="0.4" stroke="#3EB0FD" stroke-width="2" fill="#FFFFFF" cx="104" cy="8.00280962" rx="7" ry="7.00280962"></ellipse>
                        <ellipse id="Oval-Copy-7" stroke-opacity="0.4" stroke="#3EB0FD" stroke-width="2" fill="#FFFFFF" cx="136" cy="8.00280962" rx="7" ry="7.00280962"></ellipse>
                        <ellipse id="Oval-Copy-8" stroke-opacity="0.4" stroke="#3EB0FD" stroke-width="2" fill="#FFFFFF" cx="168" cy="8.00280962" rx="7" ry="7.00280962"></ellipse>
                        <ellipse id="Oval-Copy-9" stroke-opacity="0.4" stroke="#3EB0FD" stroke-width="2" fill="#FFFFFF" cx="200" cy="8.00280962" rx="7" ry="7.00280962"></ellipse>
                        <ellipse id="Oval-Copy-10" stroke-opacity="0.4" stroke="#3EB0FD" stroke-width="2" fill="#FFFFFF" cx="232" cy="8.00280962" rx="7" ry="7.00280962"></ellipse>
                        <ellipse id="Oval-Copy-18" stroke-opacity="0.4" stroke="#3EB0FD" stroke-width="2" fill="#FFFFFF" cx="8" cy="40.0028096" rx="7" ry="7.00280962"></ellipse>
                        <ellipse id="Oval-Copy-17" stroke-opacity="0.4" stroke="#3EB0FD" stroke-width="2" fill="#FFFFFF" cx="40" cy="40.0028096" rx="7" ry="7.00280962"></ellipse>
                        <ellipse id="Oval-Copy-16" stroke-opacity="0.4" stroke="#3EB0FD" stroke-width="2" fill="#FFFFFF" cx="72" cy="40.0028096" rx="7" ry="7.00280962"></ellipse>
                        <ellipse id="Oval-Copy-15" fill="#9EA9FA" cx="104" cy="40.0028096" rx="8" ry="8.00280962"></ellipse>
                        <ellipse id="Oval-Copy-14" stroke-opacity="0.4" stroke="#3EB0FD" stroke-width="2" fill="#FFFFFF" cx="136" cy="40.0028096" rx="7" ry="7.00280962"></ellipse>
                        <ellipse id="Oval-Copy-13" stroke-opacity="0.4" stroke="#3EB0FD" stroke-width="2" fill="#FFFFFF" cx="168" cy="40.0028096" rx="7" ry="7.00280962"></ellipse>
                        <ellipse id="Oval-Copy-12" stroke-opacity="0.4" stroke="#3EB0FD" stroke-width="2" fill="#FFFFFF" cx="200" cy="40.0028096" rx="7" ry="7.00280962"></ellipse>
                        <ellipse id="Oval-Copy-11" stroke-opacity="0.4" stroke="#3EB0FD" stroke-width="2" fill="#FFFFFF" cx="232" cy="40.0028096" rx="7" ry="7.00280962"></ellipse>
                        <ellipse id="Oval-Copy-26" stroke-opacity="0.4" stroke="#3EB0FD" stroke-width="2" fill="#FFFFFF" cx="8" cy="72.0028096" rx="7" ry="7.00280962"></ellipse>
                        <ellipse id="Oval-Copy-25" stroke-opacity="0.4" stroke="#3EB0FD" stroke-width="2" fill="#FFFFFF" cx="40" cy="72.0028096" rx="7" ry="7.00280962"></ellipse>
                        <ellipse id="Oval-Copy-24" stroke-opacity="0.4" stroke="#3EB0FD" stroke-width="2" fill="#FFFFFF" cx="72" cy="72.0028096" rx="7" ry="7.00280962"></ellipse>
                        <ellipse id="Oval-Copy-23" stroke-opacity="0.4" stroke="#3EB0FD" stroke-width="2" fill="#FFFFFF" cx="104" cy="72.0028096" rx="7" ry="7.00280962"></ellipse>
                        <ellipse id="Oval-Copy-22" stroke-opacity="0.4" stroke="#3EB0FD" stroke-width="2" fill="#FFFFFF" cx="136" cy="72.0028096" rx="7" ry="7.00280962"></ellipse>
                        <ellipse id="Oval-Copy-21" stroke-opacity="0.4" stroke="#3EB0FD" stroke-width="2" fill="#FFFFFF" cx="168" cy="72.0028096" rx="7" ry="7.00280962"></ellipse>
                        <ellipse id="Oval-Copy-20" fill="#9EA9FA" cx="200" cy="72.0028096" rx="8" ry="8.00280962"></ellipse>
                        <ellipse id="Oval-Copy-19" stroke-opacity="0.4" stroke="#3EB0FD" stroke-width="2" fill="#FFFFFF" cx="232" cy="72.0028096" rx="7" ry="7.00280962"></ellipse>
                        <ellipse id="Oval-Copy-34" stroke-opacity="0.4" stroke="#3EB0FD" stroke-width="2" fill="#FFFFFF" cx="8" cy="104.00281" rx="7" ry="7.00280962"></ellipse>
                        <ellipse id="Oval-Copy-33" fill="#9EA9FA" cx="40" cy="104.00281" rx="8" ry="8.00280962"></ellipse>
                        <ellipse id="Oval-Copy-32" stroke-opacity="0.4" stroke="#3EB0FD" stroke-width="2" fill="#FFFFFF" cx="72" cy="104.00281" rx="7" ry="7.00280962"></ellipse>
                        <ellipse id="Oval-Copy-31" stroke-opacity="0.4" stroke="#3EB0FD" stroke-width="2" fill="#FFFFFF" cx="104" cy="104.00281" rx="7" ry="7.00280962"></ellipse>
                        <ellipse id="Oval-Copy-30" stroke-opacity="0.4" stroke="#3EB0FD" stroke-width="2" fill="#FFFFFF" cx="136" cy="104.00281" rx="7" ry="7.00280962"></ellipse>
                        <ellipse id="Oval-Copy-29" stroke-opacity="0.4" stroke="#3EB0FD" stroke-width="2" fill="#FFFFFF" cx="168" cy="104.00281" rx="7" ry="7.00280962"></ellipse>
                        <ellipse id="Oval-Copy-28" stroke-opacity="0.4" stroke="#3EB0FD" stroke-width="2" fill="#FFFFFF" cx="200" cy="104.00281" rx="7" ry="7.00280962"></ellipse>
                        <ellipse id="Oval-Copy-27" stroke-opacity="0.4" stroke="#3EB0FD" stroke-width="2" fill="#FFFFFF" cx="232" cy="104.00281" rx="7" ry="7.00280962"></ellipse>
                        <path d="M112.166376,135.28286 C111.094389,135.769521 110.620173,137.034838 111.106833,138.10638 L114.381459,145.316512 L113.615246,145.664508 L111.395719,140.777902 C110.909058,139.705916 109.644185,139.231255 108.572198,139.71836 C107.500212,140.205021 107.025551,141.469894 107.512656,142.54188 L110.641506,149.435127 L109.862404,149.788901 L107.985095,145.655175 C107.498434,144.583633 106.233561,144.108527 105.161574,144.595632 C104.090032,145.082293 103.614483,146.346277 104.365584,148.000034 L109.765072,159.88833 C112.062377,164.940267 119.382285,167.69001 125.60043,164.867823 C131.816352,162.042525 134.564762,154.722617 131.742131,148.504917 L131.755019,148.499139 L126.103535,136.090405 C125.352433,134.436204 125.210212,134.153541 124.13867,134.640646 C122.260472,135.493524 122.130695,137.621497 122.6178,138.69304 L125.017326,143.97564 L124.238225,144.329414 L116.481433,127.25096 C115.994772,126.178974 114.730343,125.704313 113.657912,126.191418 C112.585926,126.678523 112.111265,127.942952 112.59837,129.014938 L119.040956,143.19965 L118.261855,143.553423 L114.987229,136.343291 C114.501457,135.272193 113.235696,134.796644 112.163709,135.283749" id="Shape" fill-opacity="0.4" fill="#3EB0FD" fill-rule="nonzero" transform="translate(118.425818, 146.000000) scale(-1, 1) translate(-118.425818, -146.000000) "></path>
                    </g>
                </g>
            </g>
        </g>
    </g>
</svg>
